packages/foundations/assets/icons/functional/images/business & payment/shopping_basket_16_filled.svg

<svg width="16" height="16" viewBox="0 0 16 16" fill="none" xmlns="http://www.w3.org/2000/svg">
<g clip-path="url(#clip0_2202_1477)">
<path fill-rule="evenodd" clip-rule="evenodd" d="M7.97516 2.40002C9.87016 2.40002 11.1922 3.77802 11.1922 5.58202H13.5872C14.0852 5.58202 14.4842 6.05802 14.3852 6.55902L13.1382 12.949C13.0984 13.1318 12.9978 13.2957 12.8529 13.4139C12.7079 13.5321 12.5272 13.5977 12.3402 13.6H3.66016C3.47608 13.597 3.29867 13.5306 3.15785 13.412C3.01703 13.2934 2.92142 13.1299 2.88716 12.949L1.61516 6.55902C1.51516 6.05902 1.91516 5.58202 2.41316 5.58202H4.80816C4.80816 3.80302 6.10516 2.40002 7.97516 2.40002ZM8.00016 4.00002C7.00216 4.00002 6.40416 4.67702 6.40416 5.60402H9.59616C9.59616 4.67702 8.97316 4.00002 8.00016 4.00002Z" fill="#1A1C1F"/>
</g>
<defs>
<clipPath id="clip0_2202_1477">
<rect width="16" height="16" fill="white"/>
</clipPath>
</defs>
</svg>

<svg xmlns="http://www.w3.org/2000/svg" width="16" height="16" fill="none"><g clip-path="url(#a)"><path fill="#1A1C1F" fill-rule="evenodd" d="M7.975 2.4c1.895 0 3.217 1.378 3.217 3.182h2.395c.498 0 .897.476.798.977l-1.247 6.39a.83.83 0 0 1-.798.651H3.66a.8.8 0 0 1-.773-.651l-1.272-6.39c-.1-.5.3-.977.798-.977h2.395c0-1.779 1.297-3.182 3.167-3.182M8 4c-.998 0-1.596.677-1.596 1.604h3.192C9.596 4.677 8.973 4 8 4" clip-rule="evenodd"/></g><defs><clipPath id="a"><path fill="#fff" d="M0 0h16v16H0z"/></clipPath></defs></svg>
